app/dist/common/images/toyoda-gosei-co-ltd.svg

<svg height="18" viewBox="0 0 18 18" width="18" xmlns="http://www.w3.org/2000/svg"><path d="m0 0h18v18h-18z" fill="#f0f3fa"/><g fill="#fe0009"><path d="m15 9h-4.52l-.53 1h1.67l-.68 1h-2.94l1.69-3h4.62z"/><path d="m14.5 10-2.48 4h-6.01l-1.5-2.47 2.99-4.53h1.5l-3.03 4.53.84 1.47h4.37l2-3zm-8.66-3h-1.5l-1.34 2 .78 1.33zm.16-3h6.02l1.57 2h-4l.53-1h-4.86l.75-1z"/></g></svg>

<!-- by TradingView --><svg width="18" height="18" viewBox="0 0 18 18" xmlns="http://www.w3.org/2000/svg"><path fill="#F0F3FA" d="M0 0h18v18H0z"/><path d="M15 9h-4.52l-.53 1h1.67l-.68 1H8l1.69-3h4.62L15 9Z" fill="#FE0009"/><path d="m14.5 10-2.48 4H6.01l-1.5-2.47L7.5 7H9l-3.03 4.53.84 1.47h4.37l2-3h1.32ZM5.84 7h-1.5L3 9l.78 1.33L5.84 7ZM6 4h6.02l1.57 2h-4l.53-1H5.26l.75-1Z" fill="#FE0009"/></svg>
